X: 3
T: The Eel In The Sink
R: reel
M: 4/4
L: 1/8
K: Ador
e2AB cdec|d2BG DGBd|e2AB cdef|gedg eAAG|E2AB cdec|d2BG DGBd|e2AB cdef|gedg eAAe|a2ea aged|cdef g2fg|a2ea agab|gedB BAAe|a2ea aged|cdef g2ga|ba~a2 agef|gedB BAAG|


Tune 1446	Setting 22964

